X: 1
T: Palm Sunday
R: slide
M: 12/8
L: 1/8
K: Ador
B|:AGE G2E|G2E G2E|A2B c2d|e2d efg|
~e3 dBA|BAG Bcd|edc BAG|B2A A2B:|
|:~a3 efg|aga bge|gfg gfe|dBA GBd|
efg ded|BAG Bcd|edc BAG|B2A A2B:|


Tune 770	Setting 28705

